assets/img/partners/slider-2/lufthansa.svg

<?xml version="1.0" encoding="UTF-8"?>
<svg width="300px" height="100px" viewBox="0 0 300 100" version="1.1" xmlns="http://www.w3.org/2000/svg" xmlns:xlink="http://www.w3.org/1999/xlink">
    <!-- Generator: Sketch 46.2 (44496) - http://www.bohemiancoding.com/sketch -->
    <title>lufthansa</title>
    <desc>Created with Sketch.</desc>
    <defs></defs>
    <g id="Page-1" stroke="none" stroke-width="1" fill="none" fill-rule="evenodd">
        <g id="lufthansa" fill-rule="nonzero" fill="#F9BA00">
            <g id="Lufthansa_Logo" transform="translate(11.000000, 26.000000)">
                <path d="M47.3613912,24.2497001 C47.3613912,37.2342107 36.801508,47.6425532 23.6347873,47.6425532 C10.6114298,47.6425532 0.0159636594,37.1862107 0.0159636594,24.2900405 C0.0159636594,11.1217001 10.6109142,0.754210723 24.0617827,0.754210723 C36.8474048,0.753700085 47.3613912,11.3979554 47.3613912,24.2497001 L47.3613912,24.2497001 Z M2.4701554,24.2497001 C2.4701554,35.8279129 11.9424382,45.2052766 23.6347873,45.2052766 C35.3781902,45.2052766 44.9015269,35.8733597 44.9015269,24.2900405 C44.9015269,12.4754022 35.5210377,3.19710434 23.4976125,3.19710434 C11.993492,3.1965937 2.4701554,12.7067214 2.4701554,24.2497001 Z M18.4773232,23.3060405 L18.1875027,23.8723384 C17.0999023,23.6359129 15.1134458,22.8837426 13.029523,21.9451894 L12.7448594,22.4660405 L13.5988501,22.931232 C16.6270102,24.4810192 17.6233326,24.8052746 19.3761793,24.8052746 C22.8772316,24.8052746 25.5304816,22.8377852 26.7645393,19.3690192 C28.9397402,18.9487639 31.7348062,18.7623809 35.0476298,18.7623809 C37.888077,18.7623809 40.3530984,18.9007639 43.5241059,19.2781256 L42.7206534,20.2621256 C41.2524702,20.0706363 38.5491978,19.8847639 36.6076067,19.8847639 C34.2905898,19.8847639 32.8213752,19.9322533 32.0643352,19.9777001 L31.6883937,20.8233171 C33.6299847,20.7298703 34.335971,20.7298703 35.855208,20.7298703 C38.4115073,20.7298703 40.4438607,20.8233171 42.1002725,20.9617001 L41.2973356,21.9931894 C38.3145567,21.9053597 36.9428084,21.8548065 34.7217107,21.8548065 C33.4866216,21.8548065 32.5872498,21.9053597 31.1190666,21.9451894 L30.7379681,22.7902958 C32.0137971,22.6999129 33.7666439,22.6519129 35.6164413,22.6519129 C37.369288,22.6519129 39.4485696,22.6999129 40.6826274,22.7453597 L39.8750492,23.7814448 C39.0313725,23.728849 37.3698037,23.728849 36.0888177,23.728849 C34.0564644,23.728849 31.5006807,23.8217852 30.1737979,24.0132746 L29.7926994,24.7603384 C32.2071827,24.5285086 33.720747,24.4355724 36.373997,24.4355724 C37.4157006,24.4355724 38.0763056,24.4355724 39.2649822,24.5290192 L38.3604535,25.606466 C36.7494228,25.5125086 36.2363065,25.5125086 35.6164413,25.5125086 C31.1190666,25.5125086 28.1873414,26.1666363 25.2447866,27.8093597 C27.942902,30.4794873 32.4402767,32.3085937 36.4704319,32.3085937 C36.8009923,32.3085937 36.9887052,32.3085937 37.8426959,32.2626363 L35.8964636,34.1902958 C25.2004369,31.4226363 23.3047426,30.6699554 13.5024151,24.9043384 C9.62490562,22.6999129 6.4487411,21.2006788 3.88780052,20.447998 L4.22300217,19.2781256 C4.84286736,19.3690192 6.16407754,19.7463809 7.39916669,20.1686788 L7.96333684,18.9007639 L18.4773232,23.3060405 L18.4773232,23.3060405 Z" id="path2874"></path>
                <path d="M86.839894,8.5858703 L86.839894,33.6740405 L100.194328,33.6740405 L100.194328,39.8563384 L78.932745,39.8563384 L78.932745,8.5858703 L86.839894,8.5858703 L86.839894,8.5858703 Z M116.714612,39.8563384 L116.481518,37.6570192 C114.631205,39.5790618 112.547798,40.469615 109.946633,40.469615 C106.724571,40.469615 104.122891,39.1562533 102.796524,36.9099554 C101.800717,35.2187214 101.658385,34.373615 101.658385,30.6694448 L101.658385,17.3560831 L109.092642,17.3560831 L109.092642,30.3865511 C109.092642,33.6740405 110.037911,35.0323384 112.360085,35.0323384 C114.820465,35.0323384 116.054522,33.437615 116.054522,30.3865511 L116.054522,17.3560831 L123.483622,17.3560831 L123.483622,39.8563384 L116.714612,39.8563384 L116.714612,39.8563384 Z M140.344265,13.5569341 L139.109176,13.5569341 C136.360522,13.5569341 135.654021,14.2110618 135.654021,16.6963384 L135.654021,17.3555724 L140.05496,17.3555724 L140.05496,22.3220405 L135.654021,22.3220405 L135.654021,39.8558277 L128.224921,39.8558277 L128.224921,22.3220405 L125.002859,22.3220405 L125.002859,17.3560831 L128.224921,17.3560831 L128.224921,16.696849 C128.224921,10.7923384 130.445503,8.5858703 136.269244,8.5858703 L140.344265,8.5858703 L140.344265,13.5569341 Z M151.752466,10.3215299 L151.752466,17.3560831 L155.969819,17.3560831 L155.969819,22.3225511 L151.752466,22.3225511 L151.752466,31.2316575 C151.803004,34.5150618 151.996906,34.7034873 154.832196,34.7034873 L156.300895,34.7034873 L156.300895,39.856849 L150.716435,39.856849 C146.310339,39.856849 144.318725,37.8434022 144.318725,33.2522533 L144.318725,22.3220405 L141.198256,22.3220405 L141.198256,17.3560831 L144.318725,17.3560831 L144.318725,10.3215299 L151.752466,10.3215299 Z M165.386407,8.5858703 L165.386407,19.8847639 C166.768984,17.680849 168.704903,16.696849 171.596919,16.696849 C174.716873,16.696849 177.232433,18.0102107 178.599024,20.4005086 C179.595346,22.1361682 179.741804,23.0747214 179.741804,26.8258703 L179.741804,39.8563384 L172.348287,39.8563384 L172.348287,27.1102958 C172.348287,23.8723384 171.357637,22.4205937 169.080844,22.4205937 C166.62098,22.4205937 165.386407,24.0132746 165.386407,27.1102958 L165.386407,39.8563384 L157.957822,39.8563384 L157.957822,8.5858703 L165.386407,8.5858703 L165.386407,8.5858703 Z M182.90817,24.5290192 C182.90817,19.421615 186.93781,16.4175299 193.660923,16.4175299 C200.714597,16.4175299 204.216165,19.3235724 204.216165,25.2280831 L204.216165,36.718466 C204.216165,38.6854448 204.216165,38.6854448 204.830873,39.8563384 L197.970069,39.8563384 L197.544105,37.9863809 C195.175519,40.0468065 193.138009,40.7938703 190.159355,40.7938703 C185.134425,40.7938703 181.495682,37.8428916 181.495682,33.7674873 C181.495682,30.3865511 183.716264,27.9957426 188.071823,26.7763384 C188.737069,26.5899554 190.917427,26.1671469 194.652089,25.4650192 C196.268276,25.1356575 196.877828,24.6219554 196.877828,23.5455299 C196.877828,22.277615 195.551461,21.4325086 193.564488,21.4325086 C191.150005,21.4325086 189.732876,22.5594873 189.682853,24.5295299 L182.90817,24.5295299 L182.90817,24.5290192 Z M197.065541,29.0731894 C196.120788,29.357615 195.835608,29.4469767 195.078568,29.686466 C194.179197,29.9177852 193.375744,30.1011043 192.380453,30.2931043 C189.967001,30.9022958 188.777809,31.8449341 188.777809,33.2920831 C188.777809,34.7509767 189.915947,35.591998 191.770902,35.591998 C195.368389,35.591998 197.066056,33.9993171 197.066056,30.6699554 L197.066056,29.0731894 L197.065541,29.0731894 Z M213.595623,17.3560831 L213.834905,19.8847639 C215.583111,17.680849 217.660845,16.696849 220.41053,16.696849 C223.586179,16.696849 226.147635,18.0556575 227.474002,20.4005086 C228.413598,22.1361682 228.606984,23.1227214 228.606984,26.8258703 L228.606984,39.8563384 L221.171696,39.8563384 L221.171696,27.1102958 C221.171696,23.7814448 220.221786,22.4205937 217.905285,22.4205937 C215.48616,22.4205937 214.261385,24.0132746 214.261385,27.1102958 L214.261385,39.8563384 L206.821971,39.8563384 L206.821971,17.3560831 L213.595623,17.3560831 Z M244.940071,24.3880831 C244.74617,22.2771043 243.846798,21.4820405 241.580319,21.4820405 C239.731037,21.4820405 238.598056,22.1841682 238.598056,23.3591469 C238.598056,24.4355724 239.679984,25.0907214 242.144489,25.4650192 L244.705946,25.9358277 C250.102692,26.8263809 252.612579,29.0737001 252.612579,32.9678277 C252.612579,37.7499554 248.491146,40.7938703 242.053211,40.7938703 C234.43021,40.7938703 230.263396,37.7948916 230.263396,32.3611894 L237.504783,32.3611894 L237.504783,32.6374448 C237.504783,34.5145511 239.070432,35.6895299 241.580319,35.6895299 C243.755004,35.6895299 245.081371,34.8898703 245.081371,33.6219554 C245.081371,32.3085937 243.846282,31.5605086 240.960454,31.0447639 L238.598056,30.6699554 C233.196152,29.7324235 230.873463,27.8093597 230.873463,24.2497001 C230.873463,19.3690192 234.989223,16.4175299 241.768032,16.4175299 C246.499532,16.4175299 249.436414,17.680849 250.955651,20.4005086 C251.615741,21.5300405 251.707534,21.904849 251.900404,24.3880831 L244.940071,24.3880831 Z M255.306053,24.5290192 C255.357107,19.4619554 259.381074,16.4175299 266.149568,16.4175299 C273.208399,16.4175299 276.658398,19.3235724 276.658398,25.2280831 L276.658398,36.718466 C276.658398,38.6405086 276.658398,38.6405086 277.278263,39.8563384 L270.366921,39.8563384 L269.991495,37.9863809 C267.24181,40.1857001 265.631295,40.7938703 262.607776,40.7938703 C257.530761,40.7938703 253.893565,37.8428916 253.893565,33.7674873 C253.893565,30.3865511 256.118272,27.9957426 260.468674,26.7763384 C261.134952,26.5899554 263.314794,26.1222107 267.054613,25.4650192 C268.61459,25.1356575 269.275195,24.6219554 269.275195,23.5455299 C269.275195,22.277615 267.948828,21.4325086 266.008784,21.4325086 C263.5943,21.4325086 262.125602,22.6074873 262.125602,24.5295299 L255.306053,24.5295299 L255.306053,24.5290192 Z M269.519634,29.0731894 C268.568693,29.357615 268.233491,29.4469767 267.475936,29.686466 C266.668357,29.824849 265.774143,30.0163384 264.778336,30.2931043 C262.364368,30.9022958 261.180333,31.8449341 261.180333,33.2920831 C261.180333,34.7509767 262.31383,35.591998 264.214166,35.591998 C267.811653,35.591998 269.519634,33.9993171 269.519634,30.6699554 L269.519634,29.0731894 L269.519634,29.0731894 Z" id="path2876"></path>
            </g>
        </g>
    </g>
</svg>

<svg width="300" height="100" xmlns="http://www.w3.org/2000/svg"><g id="Page-1" fill="none" fill-rule="evenodd"><g id="lufthansa" fill-rule="nonzero" fill="#F9BA00"><g id="Lufthansa_Logo" transform="translate(11 26)"><path d="M47.361 24.25c0 12.984-10.56 23.393-23.726 23.393C10.61 47.643.016 37.186.016 24.29.016 11.122 10.611.754 24.062.754c12.785 0 23.3 10.644 23.3 23.496zm-44.89 0c0 11.578 9.471 20.955 21.164 20.955 11.743 0 21.267-9.332 21.267-20.915 0-11.815-9.381-21.093-21.404-21.093-11.505 0-21.028 9.51-21.028 21.053zm16.006-.944l-.29.566c-1.087-.236-3.074-.988-5.157-1.927l-.285.521.854.465c3.028 1.55 4.024 1.874 5.777 1.874 3.501 0 6.154-1.967 7.389-5.436 2.175-.42 4.97-.607 8.283-.607 2.84 0 5.305.139 8.476.516l-.803.984c-1.469-.191-4.172-.377-6.113-.377-2.317 0-3.787.047-4.544.093l-.376.845c1.942-.093 2.648-.093 4.167-.093 2.557 0 4.589.093 6.245.232l-.803 1.031c-2.982-.088-4.354-.138-6.575-.138-1.235 0-2.135.05-3.603.09l-.381.845c1.276-.09 3.029-.138 4.878-.138 1.753 0 3.833.048 5.067.093l-.808 1.036c-.844-.052-2.505-.052-3.786-.052-2.033 0-4.588.093-5.915.284l-.381.747c2.414-.231 3.928-.324 6.581-.324 1.042 0 1.702 0 2.891.093l-.905 1.077c-1.61-.093-2.124-.093-2.744-.093-4.497 0-7.429.654-10.371 2.296 2.698 2.67 7.195 4.5 11.225 4.5.331 0 .519 0 1.373-.046l-1.947 1.927c-10.696-2.767-12.591-3.52-22.394-9.286-3.877-2.204-7.053-3.703-9.614-4.456l.335-1.17c.62.091 1.941.468 3.176.89l.564-1.267 10.514 4.405z" id="path2874"/><path d="M86.84 8.586v25.088h13.354v6.182H78.933V8.586h7.907zm29.875 31.27l-.233-2.199c-1.85 1.922-3.934 2.813-6.535 2.813-3.222 0-5.824-1.314-7.15-3.56-.996-1.691-1.139-2.536-1.139-6.24V17.355h7.435v13.03c0 3.288.945 4.646 3.267 4.646 2.46 0 3.695-1.594 3.695-4.645v-13.03h7.429v22.5h-6.77zm23.63-26.3h-1.236c-2.748 0-3.455.655-3.455 3.14v.66h4.401v4.966h-4.401v17.534h-7.43V22.322h-3.221v-4.966h3.222v-.66c0-5.904 2.22-8.11 8.044-8.11h4.075v4.97zm11.407-3.234v7.034h4.218v4.967h-4.218v8.909c.051 3.283.245 3.471 3.08 3.471h1.469v5.154h-5.585c-4.406 0-6.397-2.014-6.397-6.605v-10.93h-3.12v-4.966h3.12v-7.034h7.433zm13.634-1.736v11.299c1.383-2.204 3.319-3.188 6.21-3.188 3.12 0 5.636 1.313 7.003 3.704.996 1.735 1.143 2.674 1.143 6.425v13.03h-7.394V27.11c0-3.238-.99-4.69-3.267-4.69-2.46 0-3.695 1.593-3.695 4.69v12.746h-7.428V8.586h7.428zm17.522 15.943c0-5.107 4.03-8.111 10.753-8.111 7.054 0 10.555 2.906 10.555 8.81v11.49c0 1.967 0 1.967.615 3.138h-6.86l-.427-1.87c-2.368 2.06-4.406 2.808-7.385 2.808-5.025 0-8.663-2.951-8.663-7.027 0-3.38 2.22-5.771 6.576-6.99.665-.187 2.845-.61 6.58-1.312 1.616-.33 2.226-.843 2.226-1.92 0-1.267-1.327-2.112-3.314-2.112-2.414 0-3.831 1.126-3.881 3.097h-6.775v-.001zm14.158 4.544c-.945.285-1.23.374-1.987.613-.9.232-1.703.415-2.699.607-2.413.61-3.602 1.552-3.602 3 0 1.458 1.138 2.299 2.993 2.299 3.597 0 5.295-1.593 5.295-4.922v-1.597zm16.53-11.717l.239 2.529c1.748-2.204 3.826-3.188 6.576-3.188 3.175 0 5.737 1.359 7.063 3.704.94 1.735 1.133 2.722 1.133 6.425v13.03h-7.435V27.11c0-3.329-.95-4.69-3.267-4.69-2.419 0-3.644 1.593-3.644 4.69v12.746h-7.439v-22.5h6.774zm31.344 7.032c-.194-2.11-1.093-2.906-3.36-2.906-1.849 0-2.982.702-2.982 1.877 0 1.077 1.082 1.732 3.546 2.106l2.562.47c5.397.891 7.907 3.139 7.907 7.033 0 4.782-4.122 7.826-10.56 7.826-7.623 0-11.79-3-11.79-8.433h7.242v.276c0 1.878 1.565 3.053 4.075 3.053 2.175 0 3.501-.8 3.501-2.068 0-1.313-1.235-2.061-4.12-2.577l-2.363-.375c-5.402-.938-7.725-2.86-7.725-6.42 0-4.881 4.116-7.832 10.895-7.832 4.732 0 7.668 1.263 9.188 3.983.66 1.129.752 1.504.944 3.987h-6.96zm10.366.141c.051-5.067 4.075-8.111 10.844-8.111 7.058 0 10.508 2.906 10.508 8.81v11.49c0 1.923 0 1.923.62 3.138h-6.911l-.376-1.87c-2.75 2.2-4.36 2.808-7.383 2.808-5.077 0-8.714-2.951-8.714-7.027 0-3.38 2.224-5.771 6.575-6.99.666-.187 2.846-.655 6.586-1.312 1.56-.33 2.22-.843 2.22-1.92 0-1.267-1.326-2.112-3.266-2.112-2.415 0-3.883 1.174-3.883 3.097h-6.82v-.001zm14.214 4.544c-.951.285-1.287.374-2.044.613-.808.139-1.702.33-2.698.607-2.414.61-3.598 1.552-3.598 3 0 1.458 1.134 2.299 3.034 2.299 3.598 0 5.306-1.593 5.306-4.922v-1.597z" id="path2876"/></g></g></g></svg>
